src/icons/svgs/24/wave-sine.svg

<svg width="24" height="24" viewBox="0 0 24 24" fill="none" xmlns="http://www.w3.org/2000/svg">
<path fill-rule="evenodd" clip-rule="evenodd" d="M1.91306 11.9661C2.03881 12.1791 2.24919 12.3297 2.49685 12.3961C2.57315 12.4192 2.66861 12.431 2.76065 12.431C3.06943 12.431 3.52327 12.283 3.68296 11.8168C3.98198 10.9485 4.51087 9.86851 5.17624 9.00981C5.84974 8.1406 6.62199 7.54999 7.40008 7.54999C8.24794 7.54999 8.93418 8.12467 9.5397 9.04155C10.1431 9.95524 10.6304 11.1545 11.096 12.303L11.0989 12.3101C11.6442 13.6552 12.2383 15.1206 13.0754 16.2478C13.92 17.3849 15.0288 18.2 16.6002 18.2C18.4119 18.2 19.7586 16.9282 20.6597 15.6415C21.5646 14.3497 22.0576 12.9913 22.1548 12.7059C22.2343 12.4808 22.207 12.242 22.0886 12.0351L22.0876 12.0335C21.9628 11.8201 21.7477 11.667 21.502 11.6034C21.4264 11.5811 21.3333 11.5698 21.2434 11.5698C20.9337 11.5698 20.477 11.7172 20.3173 12.1832C20.0183 13.0513 19.4893 14.1312 18.8239 14.99C18.1504 15.8593 17.3781 16.45 16.6002 16.45C15.7523 16.45 15.0661 15.8753 14.4606 14.9584C13.8572 14.0447 13.3699 12.8455 12.9042 11.697L12.9014 11.6899C12.3561 10.3448 11.762 8.87934 10.9248 7.75213C10.0803 6.61503 8.97147 5.79999 7.40008 5.79999C5.5887 5.79999 4.24227 7.07183 3.34113 8.3583C2.43584 9.6507 1.94249 11.0096 1.84515 11.2929C1.76648 11.5174 1.79219 11.759 1.91306 11.9661ZM21.2434 11.7698C21.2434 11.7698 21.2433 11.7698 21.2434 11.7698Z" fill="black"/>
</svg>

<svg width="24" height="24" viewBox="0 0 24 24" xmlns="http://www.w3.org/2000/svg">
    <path fill-rule="evenodd" clip-rule="evenodd" d="M1.913 11.966a.956.956 0 0 0 .584.43.949.949 0 0 0 .264.035c.308 0 .762-.148.922-.614.299-.869.828-1.948 1.493-2.807.674-.87 1.446-1.46 2.224-1.46.848 0 1.534.575 2.14 1.492.603.913 1.09 2.113 1.556 3.261l.003.007c.545 1.345 1.14 2.81 1.976 3.938.845 1.137 1.954 1.952 3.525 1.952 1.812 0 3.159-1.272 4.06-2.558a12.676 12.676 0 0 0 1.495-2.936.8.8 0 0 0-.066-.67l-.001-.002a.951.951 0 0 0-.586-.43.95.95 0 0 0-.259-.034c-.31 0-.766.147-.926.613-.299.868-.828 1.948-1.493 2.807-.674.87-1.446 1.46-2.224 1.46-.848 0-1.534-.575-2.14-1.492-.603-.913-1.09-2.113-1.556-3.261l-.003-.007c-.545-1.345-1.139-2.81-1.976-3.938C10.08 6.615 8.97 5.8 7.4 5.8c-1.811 0-3.158 1.272-4.059 2.558a12.738 12.738 0 0 0-1.496 2.935.8.8 0 0 0 .068.673Zm19.33-.196Z"/>
</svg>
